www/assets/icons/report_gmailerrorred.svg

<svg xmlns="http://www.w3.org/2000/svg" width="24" height="24" viewBox="0 0 24 24" fill='currentColor'><path d="M15.73 3H8.27L3 8.27v7.46L8.27 21h7.46L21 15.73V8.27zM19 14.9 14.9 19H9.1L5 14.9V9.1L9.1 5h5.8L19 9.1z"/><path d="M13 7h-2v6h2zm0 8h-2v2h2z"/></svg>

<svg width="24" height="24" viewBox="0 0 24 24" xmlns="http://www.w3.org/2000/svg" fill='currentColor'><path d="M15.73 3H8.27L3 8.27V15.73L8.27 21H15.73L21 15.73V8.27L15.73 3ZM19 14.9L14.9 19H9.1L5 14.9V9.1L9.1 5H14.9L19 9.1V14.9Z"/><path d="M13 7H11V13H13V7Z"/><path d="M13 15H11V17H13V15Z"/></svg>
